!!!OTL: GUTEN TAG MEIN LIEBER HERR PAPA
!!!ARE: Europa, Mitteleuropa, Deutschland, Westfalen, Muenster
!!!SCT: E1705A
!!!YEM: Copyright 1995, estate of Helmut Schaffrath.
**kern
*ICvox
*Ivox
*M4/4
*k[]
*C:
=1
{4A
4A
4c
4c
=2
4A
4A
4G}
{4G
=3
4c
4c
4d
4d
=4
1e}
=5
{4.e
8e
4e
4e
=6
2g
4e}
{4e
=7
4d
4c
4c
4B
=8
1c}
==
!!!AGN: Staende -, Studenten - Lied
!!!ONB: ESAC (Essen Associative Code) Database: ERK3
!!!AMT: simple quadruple
!!!AIN: vox
!!!EED: Helmut Schaffrath
!!!EEV: 1.0
*-
